(
/*******************************************************************************

E5 Data

*******************************************************************************/

~data= ();
~data.global= ();
~data.global.bpm= 140;

"Data loaded...".postln;
~data.postln;
""
)
